X: 2163
T: Şem`i Hüsnün
C: Şivelioğlu Yorgaki
O: Turkey
F: http://compmusic.upf.edu/node/140
N: huseyni--sarki--agiraksak--semi_husnun--sivelioglu_yorgaki
N: makam= huseyni
N: form= sarki
N: usul= agiraksak = 9/4
M: 9/4
L: 1/16
K: C _2/4B ^3/4f  
Q: 1/4=60
%%MIDI tuningsystem comma53
z4 e4 z2e4^f2 g4 f2e2 e3d d3c c3_1/4B  | \
w:   | 
c2_1/4B6 A2z2 A4 e2e3dcd e^fd4f2 e8 e4 f4 f2a2 g2f2 e3d c4 d2e2 f2g2  | 
w:   | 
^f2e2 f3e d4 z2e2 d2c2 c_1/4BA2 B2c2 B4 d2c8z4z4z2 c4 d2d6 z2e2 f2g2  | 
w:   | 
a2g2 ^f2e2 d2c2 _1/4B2z2 A4 B2c4e2 d2c2 B3A  | \
w:   | 
G6z2 ^f4 e2d2 z2a2 g2f2 e3d c2_1/4B2 def2  | 
w:   | 
e2d2 c2_1/4B2 c3B A8 z4 e2d2 c2d2 e6d2 g2^fe z4 e4 z2e4f2 g4 f2e2 e3d  | 
w:   | 
d3c c3_1/4B c2B6 A2z2 A4 e2e3dcd e^fd4f2 e8 e4 f4 f2a2 g2f2 e3d c4  | 
w:   | 
d2e2 ^f2g2 f2e2 f3e d4 z2e2 d2c2 c_1/4BA2 B2c2  | \
w:   | 
_1/4B4 d2c8z4z4z2 c4 d2d6  | 
w:   | 
z2e2 ^f2g2 a2g2 f2e2 d2c2 _1/4B2z2 A4 B2c4e2  | \
w:   | 
d2c2 _1/4B3A G6z2 ^f4 e2d2 z2a2 g2f2 e3d  | 
w:   | 
c2_1/4B2 de^f2 e2d2 c2B2 c3B A8 z4 a2g2  | \
w:   | 
^f2g2 a6g2 c'2_1/4ba a4 z4 z2a4a2 a2c'2  | 
w:   | 
_1/4b2a2 a2g2 ^f2e2 d2e2 edc_1/4B A4 z2g4a2 _b3a  | \
w:   | 
g2a2 ^1/4f2a2 g8 =f4 a2g4g2 a2g2 f2e3dc4a2 g2g2 ^f2f2 e2f3ed2 e2d2 e4 dcc_1/4B  | 
w:   | 
A2_1/4B2 c2B4d2 c8 z4 z4 z2c4d2  | \
w:   | 
d6z2 e2^f2 g2a2 g2f2 e2d2 c2_1/4B2 z2A4B2  | 
w:   | 
c4 d2c2 _1/4B3A G6z2 ^f4 e2d2 z2a2 g2f2  | \
w:   | 
e3d c2_1/4B2 de^f2 e2d2 c2B2 c3B A8 e4  | 
w:   | 
d4 c2_1/4B2 A8 z4 |
w:   | 


